X: 261
T: Blowin In The Wind
C:Bob Dylan
B: steve song book
M:4/4
L:1/4
Q: 1/4=125
K:C
V:1 
"C"G2GG|"F"A2GF|"C"G2ED|"C"C3E|"C"G2GG|"F"A2GF|
"C"G4-|"C"G2EF|"C"G2GG|"F"A2GF|"C"G2ED|"Am"C3E|"C"G3E|"C"F2FE|
"G"D4-|D2EF|"C"G2GG|"F"A2GF|"C"GGED|C3E|G2GG|"F"A2GF|"G"G4-|G3E|| 
"F"F2FE|"G7"D3D|"C"EEED|"Am"C3E|"F"F2FE|"G7"DDCB|"C"C4|"C"C4||
W: [Verse 1]
W: How many roads must a man walk down
W: Before you call him a man?
W: How many seas must the white dove sail
W: Before she sleeps in the sand?
W: Yes, and how many times must the cannonballs fly
W: Before they're forever banned?
W: 
W: [Refrain]
W: The answer, my friend, is blowin' in the wind
W: The answer is blowin' in the wind
W: [Verse 2]
W: Yes, and how many years can a mountain exist
W: 'Fore it is washed to the sea?
W: Yes, and how many years can some people exist
W: Before they're allowed to be free?
W: Yes, and how many times can a man turn his head
W: And pretend that he just doesn't see?
W: 
W: [Refrain]
W: The answer, my friend, is blowin' in the wind
W: The answer is blowin' in the wind
W: 
W: [Verse 3]
W: Yes, and how many times must a man look up
W: Before he can see the sky?
W: Yes, and how many ears must one man have
W: Before he can hear people cry?
W: Yes, and how many deaths will it take till he knows
W: That too many people have died?
W: 
W: [Refrain]
W: The answer, my friend, is blowin' in the wind
W: The answer is blowin' in the wind
% abcbook-tune_id 62a1e25697afb915d3e888a8


% abcbook-boost 0
% abcbook-tablature 
% abcbook-transpose 
% abcbook-lastupdated 1654786585659
% abcbook-soundfonts 
% abcbook-repeats 1


